X:1
L:1/4
Q:1/4=200
M:6/8
V:1
V:2 clef=bass
K:F
[V:1] [CEG]/[CFA]/ z2 | [DFA]3/4 z/4 [DFA]3/4 z/4 [DFA]3/4 z/4 | [DFB]/[DFA]/ z2 | [^CEG]3/4 z/4 [^CF]3/4 z/4 [A,E]3/4 z/4 |
[V:2] [F,,F,]3/4 z3/4 [F,,F,]/[F,,F,]/[F,,F,]/ | [D,,D,]3/4 z3/4 [D,,D,]3/4 z3/4 | [D,,D,]3/4 z3/4 [D,,D,]/[D,,D,]/[D,,D,]/ | [A,,,A,,]3/4 z3/4 [A,,,A,,]3/4 z3/4 |